X: 08042
T: FRANKIE'S TUNE
C: Bob McQuillen 28 Mar 91
B: Bob's Note Book 8 #42
%R: reel
Z: 2021 John Chambers <jc:trillian.mit.edu>
M: C
L: 1/8
K: G
|:"G"d2Bd "C"edBG | "G"BAGB "C"dBAB | "G"G2GB "Em"AGBA | "Am"GBdB "D7"AGED |
| "G"d2Bd "C"edBG | "G"BAGB "C"d2BA | "G"GEGB "Em"AGBA | "Am"G2GD "D7"EDGB :|
|:"Am"A2BG AGED | EGBG AGED | "Em"E2GB AGEG | BdBG AGEG |
| "Am"A2BG AGED | EGBG "C"AGED | "D7"EGBd edBA | BdBG AGED :| "G"G8 |]
%%begintext align
%% It's always
%% such a trea when the Irish group ALTAN
%% plays in the neighborhood - Their music
%% is beautiful and Frankie Kennedy's flute
%% helps make it so - I hope this tune sounds
%% OK on that flute, Frankie!
%%endtext

%%sep 1 1 500

%%sep 1 1 500

